img/wa.svg

<svg width="22" height="22" viewBox="0 0 22 22" fill="none" xmlns="http://www.w3.org/2000/svg">
<rect width="22" height="22" fill="#F5F5F5"/>
<g id="&#208;&#186;&#208;&#189;&#208;&#190;&#208;&#191;&#208;&#186;&#208;&#184; &#208;&#180;&#208;&#181;&#209;&#129;&#208;&#186;&#209;&#130;&#208;&#190;&#208;&#191; &#209;&#129;&#208;&#176;&#208;&#185;&#209;&#130;">
<rect width="1884" height="2104" transform="translate(-1192 -727)" fill="white"/>
<g id="&#208;&#188;&#208;&#181;&#208;&#189;&#209;&#142; &#208;&#178; &#209;&#136;&#208;&#176;&#208;&#191;&#208;&#186;&#208;&#181;">
<g id="soshial media=watsapp">
<g id="Group">
<path id="Vector" d="M0 11.0031C0 10.6339 0 10.2641 0 9.89491C0.0129843 9.82209 0.0270977 9.74983 0.0378239 9.677C0.105004 9.21803 0.144521 8.75286 0.24275 8.30066C0.796559 5.76195 2.10967 3.68785 4.1849 2.13425C6.73208 0.227248 9.5971 -0.402773 12.7139 0.248136C15.2272 0.773154 17.2714 2.08852 18.834 4.12028C20.5209 6.31407 21.2231 8.81213 20.9595 11.5614C20.7461 13.7817 19.8869 15.7441 18.4106 17.4202C16.7819 19.2696 14.7496 20.4212 12.3187 20.8531C11.923 20.9237 11.5222 20.9626 11.1236 21.0163C10.7403 21.0163 10.3575 21.0163 9.97421 21.0163C9.67613 20.9829 9.37693 20.9564 9.07998 20.9152C7.58453 20.7075 6.19521 20.2067 4.92162 19.3943C4.79008 19.3102 4.67717 19.2899 4.52419 19.3396C3.32398 19.7308 2.12096 20.1124 0.919063 20.4969C0.853013 20.5178 0.786397 20.5375 0.693249 20.5658C1.1127 19.3164 1.51691 18.1066 1.92845 16.8997C1.98378 16.7376 1.977 16.6163 1.87313 16.4684C0.993017 15.2145 0.425095 13.8286 0.165409 12.3196C0.0897611 11.8849 0.0541954 11.4423 0 11.0031ZM13.9384 16.4384C13.9423 16.4226 13.9463 16.4063 13.9502 16.3905C14.0733 16.3831 14.1975 16.3865 14.3183 16.3667C14.4865 16.3385 14.657 16.3086 14.8168 16.2521C16.2959 15.7305 16.7994 15.022 16.8395 13.6434C16.8457 13.434 16.7673 13.2928 16.577 13.202C15.7946 12.8288 15.0166 12.4455 14.2308 12.0791C13.8221 11.8883 13.585 11.9668 13.3129 12.3354C13.1142 12.6047 12.9183 12.8768 12.7116 13.1399C12.3882 13.5525 12.1629 13.6079 11.6808 13.4108C9.92227 12.6939 8.62553 11.4559 7.6534 9.84918C7.52187 9.6324 7.5388 9.43482 7.70139 9.24739C7.88938 9.03061 8.07511 8.81101 8.27213 8.60269C8.59731 8.25889 8.67691 7.90775 8.46012 7.45217C8.10221 6.70134 7.80639 5.92115 7.46937 5.15959C7.41912 5.04612 7.30339 4.91007 7.19444 4.8841C6.64289 4.75087 6.06706 4.72151 5.60753 5.09919C4.58628 5.93752 4.26901 7.05812 4.46378 8.3351C4.56765 9.01875 4.84032 9.64878 5.20389 10.2314C6.00722 11.5191 6.95451 12.6888 8.07906 13.7157C9.36846 14.8939 10.8831 15.6492 12.5445 16.1296C13.0007 16.2623 13.4732 16.3374 13.9384 16.4384Z" fill="#84B447"/>
</g>
</g>
<rect x="-1055.5" y="-73.5" width="1411.67" height="369" rx="4.5" stroke="#9747FF" stroke-dasharray="10 5"/>
</g>
</g>
</svg>

<svg width="22" height="22" fill="none" xmlns="http://www.w3.org/2000/svg"><path fill="#F5F5F5" d="M0 0h22v22H0z"/><path fill="#fff" d="M-1192-727H692v2104h-1884z"/><path d="M0 11.003V9.895c.013-.073.027-.145.038-.218.067-.459.107-.924.205-1.376.554-2.54 1.867-4.613 3.942-6.167C6.732.227 9.597-.403 12.714.248c2.513.525 4.557 1.84 6.12 3.872 1.687 2.194 2.39 4.692 2.125 7.441-.213 2.22-1.072 4.183-2.548 5.86-1.63 1.849-3.661 3-6.092 3.432-.396.07-.797.11-1.195.163h-1.15c-.298-.033-.597-.06-.894-.1a10.267 10.267 0 01-4.158-1.522.421.421 0 00-.398-.054c-1.2.39-2.403.772-3.605 1.157l-.226.069c.42-1.25.824-2.46 1.235-3.666.056-.162.049-.284-.055-.432A10.128 10.128 0 01.165 12.32c-.075-.435-.11-.878-.165-1.317zm13.938 5.435l.012-.047c.123-.008.248-.004.368-.024.168-.029.339-.058.499-.115 1.479-.521 1.982-1.23 2.023-2.609.006-.209-.073-.35-.263-.441-.782-.373-1.56-.757-2.346-1.123-.409-.19-.646-.112-.918.256-.199.27-.395.542-.601.805-.324.412-.55.468-1.031.27-1.759-.716-3.055-1.954-4.028-3.56-.131-.218-.114-.415.048-.603.188-.216.374-.436.571-.644.325-.344.405-.695.188-1.15-.358-.752-.654-1.532-.99-2.293-.05-.114-.167-.25-.276-.276-.551-.133-1.127-.162-1.586.215-1.022.839-1.339 1.96-1.144 3.236.104.684.376 1.314.74 1.896a16.518 16.518 0 002.875 3.485c1.29 1.178 2.804 1.933 4.465 2.414.457.132.93.207 1.394.308z" fill="#84B447"/><rect x="-1055.5" y="-73.5" width="1411.67" height="369" rx="4.5" stroke="#9747FF" stroke-dasharray="10 5"/></svg>
